X:1
T:Tu m'hai donna ferito
T:Tu m'hai donna ferito
T:Giovanni Giacomo de Antiquis
T:Source : Primo libro delle villanelle a 3 voci---Venetia---Figlio d'A.Gardano---1574. Editor : André Vierendeels (30/03/16).
T:Notes : Original clefs : C1, C2, C4 Editorial accidentals above the staff "Alla napolitana" Music by composers from Bari, collected by G.de Antiquis
T:©
T:©
C:Giovanni Giacomo de Antiquis
Z:©
%%score [ 1 2 3 ]
L:1/8
Q:1/4=92
M:4/4
K:C
V:1 treble nm="Soprano" snm="S"
V:2 treble nm="Alto" snm="A"
V:3 treble-8 nm="Tenor" snm="T"
V:1
 G4 G4- | G2 G2 G2 G2 | A4 B4 | z4 G4 | c4 B4 | A2 A2 G2 F2 | E2 D2 E4 |[M:2/4] D4 :: %8
w: 1)Tu m'hai|_ don- na fe-|ri- to,|tu|m'hai don-|1)na fe- ri- t'hor|te ne ma-|i,|
w: 2)Io mo-|* ro'a- man- do|e tu,|Io|mo- ro'a-|2)man- do'e tu'il re-|me- dio'l sa-|i,|
w: 3)S'er- ror|_ fu quan- do|fer- mo,|s'er-|ror fu|3)quan- do fer- mo|ti guar- da-|i,|
w: 4)Non piu|_ fug- gir c'hor-|ma- i,|non|piu fug-|4)gir c'hor mai fug-|gen- do so-|no,|
[M:3/4] A2 A2 A2 |[M:4/4] d8 |"^#" c4 z2 A2- | A2 A2 G4 | A2 c2 B4 | A4 z2 A2- | A2 A2 A4 | %15
w: deh, ferm' al-|quan-|to al-|1)- la mia|fle- bil vo-|ce, do-|* ve fug-|
w: tu fug- g'io|se-|guo che|2) l'ar- *|dor mi co-|ce, do-|* ve fug-|
w: fu cau- sa|a-|mor me|3) schin' a|me sol no-|ce, do-|* ve fug-|
w: con- dot- to'a|mor-|t'e s'al-|4)- men ti|ra- gi- o-|no, spe-|* ro tro-|
 G2 G4 G2 | _B4 FE FG | A2 A2 G2 F2 | G4 A2 A2 | G2 F2 E4 |[M:2/4] D4 :| %21
w: gi, do- ve|1)fug- gi _ cru- *|del co- si ve-|lo- ce, co-|si ve- lo-|ce.|
w: gi, do- ve|2)fug- gi _ cru- *|del co- si ve-|lo- ce, co-|si ve- lo-|ce.|
w: gi, do- ve|3)fug- gi _ cru- *|del co- si ve-|lo- ce, co-|si ve- lo-|ce.|
w: var, spe- ro|4)tro- var _ pie- *|ta non che per-|do- no, non|che per- do-|no.|
V:2
 D4 E4- | E2 D2 E2 G2- |"^#" G2 F2 G2 D2 | E4 D4 | E2 F2 G4 | C2 F2 E2 D2 | C2 D4 ^C2 | %7
w: 1)Tu m'hai|_ don- na fe-|* ri- to, tu|m'hai don-|na fe- ri-|1)to hor te ne|ma- * *|
w: 2)Io mo-|* ro'a- man- do|_ e tu, io|mo- ro'a-|man- do e|2)tu il re- me-|d'iol sa- *|
[M:2/4] D4 ::[M:3/4] F2 E2 A2- |[M:4/4] A2 GF G4 | A4 z2 F2- | F2 F2 E4 |"^#" F2 A4 G2 | A2 F4 E2 | %14
w: i,|deh, ferm' al-|* * * quan-|to al-|1)- la mia|fle- bil vo-|ce, do- ve|
w: i,|tu fug- g'io|_ _ _ se-|guo che|2) l'ar- dor|mi co- *|ce, do- ve|
 F4 E2 E2- | E2 D2 EDEF | G4 D2 D2 | F3 F E2 F2- | F2 E2 F3 E | D2 D4 ^C2 |[M:2/4] D4 :| %21
w: fug- gi, do-|* ve fug- * * *|1)gi cru- del|co- si ve- lo-|* * ce, co-|si ve- lo-|ce.|
w: fug- gi, do-|* ve fug- * * *|2)gi cru- del|co- si ve- lo-|* * ce, co-|si ve- lo-|ce.|
V:3
 G4 c4- | c2 B2 c2 e2 | d4 G2 G2 | c4 B4 | A2 A2 G4 | FGAB c2 d2 |"^b" A2 B2 A4 |[M:2/4] D4 :: %8
w: 3)S'er- ror|_ fu quan- do|fer- mo, s'er-|ror fu|quan- do fer-|3)mo _ _ _ _ ti|guar- * da-|i,|
w: 4)Non piu|_ fug- gir c'hor|ma- i, non|piu fug-|gir c'hor ma-|4)i _ _ _ _ fug-|gen- do so-|no,|
[M:3/4] d2 c2 d2 |[M:4/4] _B8 | A4 z2 F2- | F2 F2 c4 | d2 A2 e4 | A2 d4 c2 | d4 A2 c2- | c2 B2 c4 | %16
w: fu cau- sa|a-|mor me|3) schin' a|me sol no-|ce, do- ve|fug- gi, do-|* ve fug-|
w: con- dot- to'a|mor-|t'e s'al-|4)- men ti|ra- gi- o-|no, spe- ro|tro- var, spe-|* ro tro-|
 G2 G2 _B4 | F4 c2 d2 | c4 F2 F2 | G2 G2 A4 |[M:2/4] D4 :| %21
w: 3)gi cru- del|co- si ve-|lo- ce, co-|si ve- lo-|ce.|
w: 4)var pie- ta|non per- *|do- no, non|per- do- *|no.|

